src/assets/2019.svg

<svg width="2344" height="1947" fill="none" xmlns="http://www.w3.org/2000/svg">
  <g filter="url(#filter0_d)">
    <path d="M1565.81 757.37c-81.89-51.633-10.74-142.984-143.5-197.397C1398.24 550.105 270.546.688 270.546.688L25.465 534.792S799.59 1079.65 837.259 1099.73c37.67 20.07 134.651 158.05 263.481 123.13 128.83-34.91 151.45-52.03 199.94-12.71 48.49 39.32-121.49 176.43-46.9 250.62 74.58 74.19 178.66 43.9 275.85 85.79 97.19 41.9 30.43 166.68 70.36 256.58 39.93 89.9 222.94 82.4 250.82 36.14 27.88-46.26 44.55-112.58 88.24-137.02 43.7-24.44 157.15 39.33 195.57-22.64 38.42-61.97-33.81-133.06 37.76-133.06s87.23-1.51 119.25-37.33c22.76-25.47 32.05-36.15 24.64-68.71-7.4-32.57-17.88-51.64-24.64-65.54-6.76-13.9-67.97-96.12-67.97-116.37 0-20.26 120.86-99 49.29-158.88-71.57-59.89-145.48-11.91-163.77-37.33-18.29-25.42-18.68-80.227-58.03-107.632-39.36-27.406-267.65 48.672-306.07 32.965-38.43-15.71-22.66-123.522-37.37-160.459-14.7-36.938-60.02-18.271-141.9-69.904z" fill="#fff"/>
  </g>
  <defs>
    <filter id="filter0_d" x=".465" y=".688" width="2343.31" height="1946.16" filterUnits="userSpaceOnUse" color-interpolation-filters="sRGB">
      <feFlood flood-opacity="0" result="BackgroundImageFix"/>
      <feColorMatrix in="SourceAlpha" values="0 0 0 0 0 0 0 0 0 0 0 0 0 0 0 0 0 0 127 0"/>
      <feOffset dy="49"/>
      <feGaussianBlur stdDeviation="12.5"/>
      <feColorMatrix values="0 0 0 0 0 0 0 0 0 0 0 0 0 0 0 0 0 0 0.25 0"/>
      <feBlend in2="BackgroundImageFix" result="effect1_dropShadow"/>
      <feBlend in="SourceGraphic" in2="effect1_dropShadow" result="shape"/>
    </filter>
  </defs>
</svg>

<svg width="2344" height="1947" viewBox="0 0 2344 1947" fill="none" xmlns="http://www.w3.org/2000/svg">
<g filter="url(#filter0_d)">
<path d="M1565.81 757.37C1483.92 705.737 1555.07 614.386 1422.31 559.973C1398.24 550.105 270.546 0.688477 270.546 0.688477L25.4648 534.792C25.4648 534.792 799.59 1079.65 837.259 1099.73C874.929 1119.8 971.91 1257.78 1100.74 1222.86C1229.57 1187.95 1252.19 1170.83 1300.68 1210.15C1349.17 1249.47 1179.19 1386.58 1253.78 1460.77C1328.36 1534.96 1432.44 1504.67 1529.63 1546.56C1626.82 1588.46 1560.06 1713.24 1599.99 1803.14C1639.92 1893.04 1822.93 1885.54 1850.81 1839.28C1878.69 1793.02 1895.36 1726.7 1939.05 1702.26C1982.75 1677.82 2096.2 1741.59 2134.62 1679.62C2173.04 1617.65 2100.81 1546.56 2172.38 1546.56C2243.95 1546.56 2259.61 1545.05 2291.63 1509.23C2314.39 1483.76 2323.68 1473.08 2316.27 1440.52C2308.87 1407.95 2298.39 1388.88 2291.63 1374.98C2284.87 1361.08 2223.66 1278.86 2223.66 1258.61C2223.66 1238.35 2344.52 1159.61 2272.95 1099.73C2201.38 1039.84 2127.47 1087.82 2109.18 1062.4C2090.89 1036.98 2090.5 982.173 2051.15 954.768C2011.79 927.362 1783.5 1003.44 1745.08 987.733C1706.65 972.023 1722.42 864.211 1707.71 827.274C1693.01 790.336 1647.69 809.003 1565.81 757.37Z" fill="white"/>
</g>
<defs>
<filter id="filter0_d" x="0.464844" y="0.688477" width="2343.31" height="1946.16" filterUnits="userSpaceOnUse" color-interpolation-filters="sRGB">
<feFlood flood-opacity="0" result="BackgroundImageFix"/>
<feColorMatrix in="SourceAlpha" type="matrix" values="0 0 0 0 0 0 0 0 0 0 0 0 0 0 0 0 0 0 127 0"/>
<feOffset dy="49"/>
<feGaussianBlur stdDeviation="12.5"/>
<feColorMatrix type="matrix" values="0 0 0 0 0 0 0 0 0 0 0 0 0 0 0 0 0 0 0.25 0"/>
<feBlend mode="normal" in2="BackgroundImageFix" result="effect1_dropShadow"/>
<feBlend mode="normal" in="SourceGraphic" in2="effect1_dropShadow" result="shape"/>
</filter>
</defs>
</svg>
